X:1
T:Alborada na aldea
T:XA 14
R:alborada
C:Tradicional
S:Música Tradicional Asturiana, (C) Tello & Tito. Asturies, 2001.
A:Asturies
G:Arrg.
Z:Métodu de Xuacu Amieva 14
M:3/8
L:1/8
Q:3/8=72
K:D
|: D>FA|ddd|d2 c|Acc|c3|Bc~B|A3-|A3|F>GA|BBB|B2 A|FAB|A2 ~A|GAG|F3-|F3 :|
|: ABA|F2 D|ABA|F3|DFA|ddd|c2 ~B|A3-|A2 A|d2 A|ABc|d A2|FAB|A2 ~A|GAG|F3-|F3 :|
